X: 1
T: Bour\'ee \`a Stephane
R: bour\'ee
S: handout at NEFFA 2016 from Mark Vidor p.17 #1
Z: 2016 John Chambers <jc:trillian.mit.edu>
M: 2/4
L: 1/8
K: G
|:\
"G"B2 d2 | "Em"B>A Gd | "C"cB "G"GB | "D"A/B/A/G/ FD |\
"G"B2 d2 | "Em"B>A Gd | "C"cB "G"GB | "D"A4 :|
|:\
"D"DF AB | "C"c3 B | "G"G2 BG | "D"FA GF |\
"D"ED AB | "C"c3 B | "G"G2 BG | "D"A4 :|
